X:1
T:After the Life-Paths
T:After the Life-Paths
T:Anthony Johnson Showalter
T:Jennie Bain Wilson, 1897
T:Public Domain Courtesy of the Cyber Hymnal™
C:Anthony Johnson Showalter
Z:Public Domain
Z:Courtesy of the Cyber Hymnal™
%%score ( 1 2 ) ( 3 4 )
L:1/8
Q:1/4=100
M:6/8
K:C
V:1 treble 
V:2 treble 
V:3 bass 
V:4 bass 
V:1
 [EG][^D^F][=FA] [EG][CE][Ec] | [Fc]3 [FB]3 | [FB][FG][FB] [Fd][FA][FB] | [Ec]6 | %4
w: 1.~Af- ter the life- paths we’re|tread- ing|End up- on time’s sol- emn|shore,|
w: 2.~There will be light for the|spir- its|Who thro’ deep sha- dows have|come—|
w: 3.~There will be light for the|wea- ry|Who thro’ sore tri- als have|passed—|
w: 4.~There will be light for the|faith- ful,|What- e’er the way they have|trod—|
 [Fc][FA][GB] [Ac][GB][FA] | [EG]3 [Ec]3 | [Ge][Gc][Ad] [Ge]<[Ge][Fd] | [Ec]6 || %8
w: There will be light at the|riv- er|While the re- deemed ones pass|o’er.|
w: Fade- less light shin- ing glad|wel- come|Out from the win- dows of|home.|
w: Ra- di- ant light as they|en- ter,|Peace that for ev- er shall|last.|
w: Glo- ri- ous light sent to|guide them|Safe to the ci- ty of|God.|
"^Refrain" [Fc]4 [FB][Fc] | [Fd][Fc][FA] [FA] [EG]2 | [Ec]4 [EB][Ec] | [Ge][Fd][Ec] [Ge] [Gd]2 | %12
w: ||||
w: There will be|light at the ri- ver,|There will be|light at the ri- ver,|
w: ||||
w: ||||
 [_Be]4 [Bd][Bc] | [Ac][^GB][Ac] [Ad] [FA]2 | [EG][Ec][Fd] [Ge]<[Ge][Fd] | c6 |] %16
w: ||||
w: There will be|light at the ri- ver,|While the re- deemed ones pass|o’er.|
w: ||||
w: ||||
V:2
 x6 | x6 | x6 | x6 | x6 | x6 | x6 | x6 || x6 | x6 | x6 | x6 | x6 | x6 | x6 | (E2 F E3) |] %16
V:3
 [C,C][C,C][C,C] [C,C][C,G,][C,G,] | [D,G,]3 [D,G,]3 | G,[G,B,][G,D] [G,B,][G,C][G,D] | [C,C]6 | %4
w: ~ ~ ~ ~ ~ ~|~ ~|~ ~ ~ ~ ~ ~|~|
 [F,A,][F,C][F,C] [F,C][F,C][F,C] | [C,C]3 [C,G,]3 | [C,C][E,C][F,C] [G,C]<[G,C][G,B,] | [C,C]6 || %8
w: ~ ~ ~ ~ ~ ~|~ ~|~ ~ ~ ~ ~ ~|~|
 [F,A,][F,A,][F,A,] [F,A,][F,A,][F,A,] | [F,A,][F,A,][F,C] [C,C] [C,C]2 | %10
w: There will be light, bless- èd|light at the ri- ver,|
 [A,C][A,C][A,C] [A,C][A,C][A,C] | [G,C][G,C][G,C] [G,C] [G,B,]2 | %12
w: There will be light, bless- èd|light at the ri- ver,|
 [C,C][C,C][C,C] [C,C][D,C][E,C] | [F,C][F,C][F,C] [E,A,] [F,C]2 | %14
w: There will be light, bless- èd|light at the ri- ver,|
 [G,C][G,C][G,C] [G,C]<[G,C][G,B,] | (C2 A, C,3) |] %16
w: While the re- deemed ones pass|o’er. * *|
V:4
 x6 | x6 | G, x5 | x6 | x6 | x6 | x6 | x6 || x6 | x6 | x6 | x6 | x6 | x6 | x6 | C,6 |] %16

